Icons/com_sp_protector_free.svg

<svg viewBox="0 0 48 48" xmlns:xlink="http://www.w3.org/1999/xlink">
 <defs>
  <linearGradient id="0">
   <stop stop-opacity="0"/>
   <stop offset="1"/>
  </linearGradient>
  <linearGradient xlink:href="#0" id="1" gradientUnits="userSpaceOnUse" gradientTransform="translate(4e-7,-48)" y1="47" x2="0" y2="1"/>
  <clipPath id="2">
   <g transform="translate(0,-1004.3622)">
    <rect rx="4" y="1005.36" x="1" height="46" width="46" fill="#1890d0"/>
   </g>
  </clipPath>
  <clipPath id="3">
   <g transform="translate(0,-1004.3622)">
    <rect rx="4" y="1005.36" x="1" height="46" width="46" fill="#1890d0"/>
   </g>
  </clipPath>
 </defs>
 <g>
  <g transform="translate(0,-1004.3622)">
   <path d="m 5,1006.3622 c -2.216,0 -4,1.784 -4,4 l 0,37.25 c 0,2.216 1.784,4 4,4 l 38,0 c 2.216,0 4,-1.784 4,-4 l 0,-37.25 c 0,-2.216 -1.784,-4 -4,-4 l -38,0 z m -4,41.5 0,0.5 c 0,2.216 1.784,4 4,4 l 38,0 c 2.216,0 4,-1.784 4,-4 l 0,-0.5 c 0,2.216 -1.784,4 -4,4 l -38,0 c -2.216,0 -4,-1.784 -4,-4 z" opacity="0.02"/>
   <path d="m 1,1047.6122 0,0.25 c 0,2.216 1.784,4 4,4 l 38,0 c 2.216,0 4,-1.784 4,-4 l 0,-0.25 c 0,2.216 -1.784,4 -4,4 l -38,0 c -2.216,0 -4,-1.784 -4,-4 z" opacity="0.05"/>
   <rect width="46" height="46" x="1" y="1005.61" rx="4" opacity="0.1"/>
  </g>
 </g>
 <g>
  <g transform="translate(0,-1004.3622)">
   <rect rx="4" y="1005.36" x="1" height="46" width="46" fill="#94ca4e"/>
  </g>
 </g>
 <g>
  <rect transform="scale(1,-1)" width="46" height="46" x="1" y="-46.998" rx="4" opacity="0.1" fill="url(#1)"/>
 </g>
 <g>
  <g clip-path="url(#2)">
   <g opacity="0.1">
    <g>
     <path d="M 38 24.003906 C 37.996094 31.734375 31.730469 38 24 38 C 16.269531 38 10.003906 31.734375 10 24.003906 C 9.996094 16.269531 16.265625 10 24 10 C 31.734375 10 38.003906 16.269531 38 24.003906 Z M 38 24.003906 " stroke="#f9f9f9" stroke-width="1.998"/>
     <path d="M 26 24.003906 C 26 25.109375 25.105469 26.003906 24 26.003906 C 22.894531 26.003906 22 25.109375 22 24.003906 C 22 22.898438 22.894531 22.003906 24 22.003906 C 25.105469 22.003906 26 22.898438 26 24.003906 Z M 26 24.003906 "/>
     <path d="M 26 18.003906 C 26 19.109375 25.105469 20.003906 24 20.003906 C 22.894531 20.003906 22 19.109375 22 18.003906 C 22 16.898438 22.894531 16.003906 24 16.003906 C 25.105469 16.003906 26 16.898438 26 18.003906 Z M 26 18.003906 "/>
     <path d="M 20 18.003906 C 20 19.109375 19.105469 20.003906 18 20.003906 C 16.894531 20.003906 16 19.109375 16 18.003906 C 16 16.898438 16.894531 16.003906 18 16.003906 C 19.105469 16.003906 20 16.898438 20 18.003906 Z M 20 18.003906 "/>
     <path d="M 32 18.003906 C 32 19.109375 31.105469 20.003906 30 20.003906 C 28.894531 20.003906 28 19.109375 28 18.003906 C 28 16.898438 28.894531 16.003906 30 16.003906 C 31.105469 16.003906 32 16.898438 32 18.003906 Z M 32 18.003906 "/>
     <path d="M 32 30.003906 C 32 31.109375 31.105469 32.003906 30 32.003906 C 28.894531 32.003906 28 31.109375 28 30.003906 C 28 28.898438 28.894531 28.003906 30 28.003906 C 31.105469 28.003906 32 28.898438 32 30.003906 Z M 32 30.003906 "/>
     <path d="M 26 30.003906 C 26 31.109375 25.105469 32.003906 24 32.003906 C 22.894531 32.003906 22 31.109375 22 30.003906 C 22 28.898438 22.894531 28.003906 24 28.003906 C 25.105469 28.003906 26 28.898438 26 30.003906 Z M 26 30.003906 "/>
     <path d="M 20 30.003906 C 20 31.109375 19.105469 32.003906 18 32.003906 C 16.894531 32.003906 16 31.109375 16 30.003906 C 16 28.898438 16.894531 28.003906 18 28.003906 C 19.105469 28.003906 20 28.898438 20 30.003906 Z M 20 30.003906 "/>
     <path d="M 18 17.003906 L 30 17.003906 L 30 19.003906 L 18 19.003906 Z M 18 17.003906 "/>
     <path d="M 18 29.003906 L 30 29.003906 L 30 31.003906 L 18 31.003906 Z M 18 29.003906 "/>
     <path d="M 18 29.003906 L 30 17.003906 L 30 19.003906 L 18 31.003906 Z M 18 29.003906 "/>
    </g>
   </g>
  </g>
 </g>
 <g>
  <g clip-path="url(#3)">
   <g transform="translate(0,-1)">
    <g>
     <path d="M 38 24.003906 C 37.996094 31.734375 31.730469 38 24 38 C 16.269531 38 10.003906 31.734375 10 24.003906 C 9.996094 16.269531 16.265625 10 24 10 C 31.734375 10 38.003906 16.269531 38 24.003906 Z M 38 24.003906 " fill="none" stroke="#f9f9f9" stroke-width="1.998"/>
     <path d="M 26 24.003906 C 26 25.109375 25.105469 26.003906 24 26.003906 C 22.894531 26.003906 22 25.109375 22 24.003906 C 22 22.898438 22.894531 22.003906 24 22.003906 C 25.105469 22.003906 26 22.898438 26 24.003906 Z M 26 24.003906 " fill="#f9f9f9"/>
     <path d="M 26 18.003906 C 26 19.109375 25.105469 20.003906 24 20.003906 C 22.894531 20.003906 22 19.109375 22 18.003906 C 22 16.898438 22.894531 16.003906 24 16.003906 C 25.105469 16.003906 26 16.898438 26 18.003906 Z M 26 18.003906 " fill="#f9f9f9"/>
     <path d="M 20 18.003906 C 20 19.109375 19.105469 20.003906 18 20.003906 C 16.894531 20.003906 16 19.109375 16 18.003906 C 16 16.898438 16.894531 16.003906 18 16.003906 C 19.105469 16.003906 20 16.898438 20 18.003906 Z M 20 18.003906 " fill="#f9f9f9"/>
     <path d="M 32 18.003906 C 32 19.109375 31.105469 20.003906 30 20.003906 C 28.894531 20.003906 28 19.109375 28 18.003906 C 28 16.898438 28.894531 16.003906 30 16.003906 C 31.105469 16.003906 32 16.898438 32 18.003906 Z M 32 18.003906 " fill="#f9f9f9"/>
     <path d="M 32 30.003906 C 32 31.109375 31.105469 32.003906 30 32.003906 C 28.894531 32.003906 28 31.109375 28 30.003906 C 28 28.898438 28.894531 28.003906 30 28.003906 C 31.105469 28.003906 32 28.898438 32 30.003906 Z M 32 30.003906 " fill="#f9f9f9"/>
     <path d="M 26 30.003906 C 26 31.109375 25.105469 32.003906 24 32.003906 C 22.894531 32.003906 22 31.109375 22 30.003906 C 22 28.898438 22.894531 28.003906 24 28.003906 C 25.105469 28.003906 26 28.898438 26 30.003906 Z M 26 30.003906 " fill="#f9f9f9"/>
     <path d="M 20 30.003906 C 20 31.109375 19.105469 32.003906 18 32.003906 C 16.894531 32.003906 16 31.109375 16 30.003906 C 16 28.898438 16.894531 28.003906 18 28.003906 C 19.105469 28.003906 20 28.898438 20 30.003906 Z M 20 30.003906 " fill="#f9f9f9"/>
     <path d="M 18 17.003906 L 30 17.003906 L 30 19.003906 L 18 19.003906 Z M 18 17.003906 " fill="#f9f9f9"/>
     <path d="M 18 29.003906 L 30 29.003906 L 30 31.003906 L 18 31.003906 Z M 18 29.003906 " fill="#f9f9f9"/>
     <path d="M 18 29.003906 L 30 17.003906 L 30 19.003906 L 18 31.003906 Z M 18 29.003906 " fill="#f9f9f9"/>
    </g>
   </g>
  </g>
 </g>
 <g>
  <g transform="translate(0,-1004.3622)">
   <path d="m 1,1043.3622 0,4 c 0,2.216 1.784,4 4,4 l 38,0 c 2.216,0 4,-1.784 4,-4 l 0,-4 c 0,2.216 -1.784,4 -4,4 l -38,0 c -2.216,0 -4,-1.784 -4,-4 z" opacity="0.1"/>
  </g>
 </g>
</svg>

<svg viewBox="0 0 48 48"><defs><linearGradient id="linearGradient3764" x1="1" x2="47" gradientUnits="userSpaceOnUse" gradientTransform="translate(-48.000001,0.00221467)"><stop stop-color="#8bc53f" stop-opacity="1"/><stop offset="1" stop-color="#94ca4e" stop-opacity="1"/></linearGradient><clipPath id="clipPath-294625804"><g transform="translate(0,-1004.3622)"><rect rx="4" y="1005.36" x="1" height="46" width="46" fill="#1890d0"/></g></clipPath><clipPath id="clipPath-307998827"><g transform="translate(0,-1004.3622)"><rect rx="4" y="1005.36" x="1" height="46" width="46" fill="#1890d0"/></g></clipPath></defs><g><path d="m 1 43 l 0 0.25 c 0 2.216 1.784 4 4 4 l 38 0 c 2.216 0 4 -1.784 4 -4 l 0 -0.25 c 0 2.216 -1.784 4 -4 4 l -38 0 c -2.216 0 -4 -1.784 -4 -4 z m 0 0.5 l 0 0.5 c 0 2.216 1.784 4 4 4 l 38 0 c 2.216 0 4 -1.784 4 -4 l 0 -0.5 c 0 2.216 -1.784 4 -4 4 l -38 0 c -2.216 0 -4 -1.784 -4 -4 z" opacity="0.02"/><path d="m 1 43.25 l 0 0.25 c 0 2.216 1.784 4 4 4 l 38 0 c 2.216 0 4 -1.784 4 -4 l 0 -0.25 c 0 2.216 -1.784 4 -4 4 l -38 0 c -2.216 0 -4 -1.784 -4 -4 z" opacity="0.05"/><path d="m 1 43 l 0 0.25 c 0 2.216 1.784 4 4 4 l 38 0 c 2.216 0 4 -1.784 4 -4 l 0 -0.25 c 0 2.216 -1.784 4 -4 4 l -38 0 c -2.216 0 -4 -1.784 -4 -4 z" opacity="0.1"/></g><g><rect width="46" height="46" x="-47" y="1" rx="4" transform="matrix(0,-1,1,0,0,0)" fill="url(#linearGradient3764)" fill-opacity="1"/></g><g><g clip-path="url(#clipPath-294625804)"><g opacity="0.1"><!-- color: #94ca4e --><g><path d="m 38 24 c -0.004 7.73 -6.27 13.996 -14 13.996 c -7.73 0 -13.996 -6.266 -14 -13.996 c -0.004 -7.734 6.266 -14 14 -14 c 7.734 0 14 6.27 14 14 m 0 0" stroke="#f9f9f9" stroke-width="1.998" fill="#000"/><path d="m 26 24 c 0 1.105 -0.895 2 -2 2 c -1.105 0 -2 -0.895 -2 -2 c 0 -1.105 0.895 -2 2 -2 c 1.105 0 2 0.895 2 2 m 0 0" fill="#000"/><path d="m 26 18 c 0 1.105 -0.895 2 -2 2 c -1.105 0 -2 -0.895 -2 -2 c 0 -1.105 0.895 -2 2 -2 c 1.105 0 2 0.895 2 2 m 0 0" fill="#000"/><path d="m 20 18 c 0 1.105 -0.895 2 -2 2 c -1.105 0 -2 -0.895 -2 -2 c 0 -1.105 0.895 -2 2 -2 c 1.105 0 2 0.895 2 2 m 0 0" fill="#000"/><path d="m 32 18 c 0 1.105 -0.895 2 -2 2 c -1.105 0 -2 -0.895 -2 -2 c 0 -1.105 0.895 -2 2 -2 c 1.105 0 2 0.895 2 2 m 0 0" fill="#000"/><path d="m 32 30 c 0 1.105 -0.895 2 -2 2 c -1.105 0 -2 -0.895 -2 -2 c 0 -1.105 0.895 -2 2 -2 c 1.105 0 2 0.895 2 2 m 0 0" fill="#000"/><path d="m 26 30 c 0 1.105 -0.895 2 -2 2 c -1.105 0 -2 -0.895 -2 -2 c 0 -1.105 0.895 -2 2 -2 c 1.105 0 2 0.895 2 2 m 0 0" fill="#000"/><path d="m 20 30 c 0 1.105 -0.895 2 -2 2 c -1.105 0 -2 -0.895 -2 -2 c 0 -1.105 0.895 -2 2 -2 c 1.105 0 2 0.895 2 2 m 0 0" fill="#000"/><path d="m 18 17 l 12 0 l 0 2 l -12 0 m 0 -2" fill="#000"/><path d="m 18 29 l 12 0 l 0 2 l -12 0 m 0 -2" fill="#000"/><path d="m 18 29 l 12 -12 l 0 2 l -12 12 m 0 -2" fill="#000"/></g></g></g></g><g><g clip-path="url(#clipPath-307998827)"><g transform="translate(0,-1)"><!-- color: #94ca4e --><g><path d="m 38 24 c -0.004 7.73 -6.27 13.996 -14 13.996 c -7.73 0 -13.996 -6.266 -14 -13.996 c -0.004 -7.734 6.266 -14 14 -14 c 7.734 0 14 6.27 14 14 m 0 0" fill="none" stroke="#f9f9f9" stroke-width="1.998"/><path d="m 26 24 c 0 1.105 -0.895 2 -2 2 c -1.105 0 -2 -0.895 -2 -2 c 0 -1.105 0.895 -2 2 -2 c 1.105 0 2 0.895 2 2 m 0 0" fill="#f9f9f9"/><path d="m 26 18 c 0 1.105 -0.895 2 -2 2 c -1.105 0 -2 -0.895 -2 -2 c 0 -1.105 0.895 -2 2 -2 c 1.105 0 2 0.895 2 2 m 0 0" fill="#f9f9f9"/><path d="m 20 18 c 0 1.105 -0.895 2 -2 2 c -1.105 0 -2 -0.895 -2 -2 c 0 -1.105 0.895 -2 2 -2 c 1.105 0 2 0.895 2 2 m 0 0" fill="#f9f9f9"/><path d="m 32 18 c 0 1.105 -0.895 2 -2 2 c -1.105 0 -2 -0.895 -2 -2 c 0 -1.105 0.895 -2 2 -2 c 1.105 0 2 0.895 2 2 m 0 0" fill="#f9f9f9"/><path d="m 32 30 c 0 1.105 -0.895 2 -2 2 c -1.105 0 -2 -0.895 -2 -2 c 0 -1.105 0.895 -2 2 -2 c 1.105 0 2 0.895 2 2 m 0 0" fill="#f9f9f9"/><path d="m 26 30 c 0 1.105 -0.895 2 -2 2 c -1.105 0 -2 -0.895 -2 -2 c 0 -1.105 0.895 -2 2 -2 c 1.105 0 2 0.895 2 2 m 0 0" fill="#f9f9f9"/><path d="m 20 30 c 0 1.105 -0.895 2 -2 2 c -1.105 0 -2 -0.895 -2 -2 c 0 -1.105 0.895 -2 2 -2 c 1.105 0 2 0.895 2 2 m 0 0" fill="#f9f9f9"/><path d="m 18 17 l 12 0 l 0 2 l -12 0 m 0 -2" fill="#f9f9f9"/><path d="m 18 29 l 12 0 l 0 2 l -12 0 m 0 -2" fill="#f9f9f9"/><path d="m 18 29 l 12 -12 l 0 2 l -12 12 m 0 -2" fill="#f9f9f9"/></g></g></g></g><g><g transform="translate(0,-1004.3622)"><path d="m 1 1043.36 0 4 c 0 2.216 1.784 4 4 4 l 38 0 c 2.216 0 4 -1.784 4 -4 l 0 -4 c 0 2.216 -1.784 4 -4 4 l -38 0 c -2.216 0 -4 -1.784 -4 -4 z" opacity="0.1"/></g></g></svg>
